src/assets/icons/_place.svg

<svg xmlns="http://www.w3.org/2000/svg" width="128" height="128" viewBox="0 0 128 128">
  <g fill="none" fill-rule="evenodd">
    <path fill="#000" fill-rule="nonzero" d="M62.7701315,43.2301351 L65.7698649,43.2701315 L65.7498667,44.7699982 L65.496,63.771 L73.4958004,63.8782996 L63.7433339,82.7499556 L54.4974891,63.6249888 L62.496,63.731 L62.7501333,44.7300018 L62.7701315,43.2301351 Z"/>
    <rect width="80" height="8" x="24" y="16" fill="#000" rx="4"/>
    <path fill="#000" d="M82,16 C85.3137085,16 88,18.6862915 88,22 L88,97 C88,105.284271 81.2842712,112 73,112 L55,112 C46.7157288,112 40,105.284271 40,97 L40,22 C40,18.6862915 42.6862915,16 46,16 L82,16 Z M74,24 L54,24 C50.6862915,24 48,26.6862915 48,30 L48,30 L48,96 C48,100.418278 51.581722,104 56,104 L56,104 L72,104 C76.418278,104 80,100.418278 80,96 L80,96 L80,30 C80,26.6862915 77.3137085,24 74,24 L74,24 Z"/>
  </g>
</svg>

<svg xmlns="http://www.w3.org/2000/svg" viewBox="0 0 128 128">
    <g fill="#000" fill-rule="evenodd">
        <path fill-rule="nonzero" d="M62.77 43.23l3 .04-.02 1.5-.254 19.001 8 .107-9.753 18.872-9.246-19.125 7.999.106.254-19.001.02-1.5z"/>
        <rect width="80" height="8" x="24" y="16" rx="4"/>
        <path d="M82 16a6 6 0 016 6v75c0 8.284-6.716 15-15 15H55c-8.284 0-15-6.716-15-15V22a6 6 0 016-6h36zm-8 8H54a6 6 0 00-6 6v66a8 8 0 008 8h16a8 8 0 008-8V30a6 6 0 00-6-6z"/>
    </g>
</svg>
